blockchains/ethereum/assets/0x139838869D3E1AB94C798917840dA1c079103c84/logo.svg

<svg fill="none" height="250" viewBox="0 0 250 250" width="250" xmlns="http://www.w3.org/2000/svg" xmlns:xlink="http://www.w3.org/1999/xlink"><clipPath id="a"><path d="m0 0h250v250h-250z"/></clipPath><g clip-path="url(#a)"><path d="m125 250c69.036 0 125-55.964 125-125 0-69.0356-55.964-125-125-125-69.0356 0-125 55.9644-125 125 0 69.036 55.9644 125 125 125z" fill="#000d2b"/><path d="m124.375 45.9338-35.3001 20.6837 35.3001 20.6838 35.962-20.6838zm5.805 110.4262v41.366l47.945-27.351v-41.375zm35.957-76.735v41.375l-35.962 20.684v-41.375zm-86.5721 41.375 35.9621 20.684v-41.375l-35.9621-20.684zm0 56.044 35.9621 20.684v-41.368l-35.9621-20.684v41.367z" fill="#fff"/></g></svg>

<svg width="250" height="250" viewBox="0 0 250 250" fill="none" xmlns="http://www.w3.org/2000/svg">
<g clip-path="url(#clip0_9_599)">
<path d="M125 250C194.036 250 250 194.036 250 125C250 55.9644 194.036 0 125 0C55.9644 0 0 55.9644 0 125C0 194.036 55.9644 250 125 250Z" fill="#000D2B"/>
<path d="M124.375 45.9338L89.0749 66.6175L124.375 87.3013L160.337 66.6175L124.375 45.9338ZM130.18 156.36V197.726L178.125 170.375V129L130.18 156.36ZM166.137 79.625V121L130.175 141.684V100.309L166.137 79.625ZM79.5649 121L115.527 141.684V100.309L79.5649 79.625V121ZM79.5649 177.044L115.527 197.728V156.36L79.5649 135.676V177.043V177.044Z" fill="white"/>
</g>
<defs>
<clipPath id="clip0_9_599">
<rect width="250" height="250" fill="white"/>
</clipPath>
</defs>
</svg>
